lib/flags/tk-tokelau.svg

<svg xmlns="http://www.w3.org/2000/svg" fill="none" aria-hidden="true" viewBox="0 0 42 30"><g id="Country=TK - Tokelau, Size=sm (36x24)" filter="url(#filter0_dd_91_24743)"><g clip-path="url(#clip0_91_24743)"><g id="flag"><mask id="mask0_91_24743" width="36" height="24" x="3" y="2" maskUnits="userSpaceOnUse" style="mask-type:alpha"><rect id="mask" width="36" height="24" x="3" y="2" fill="white"/></mask><g mask="url(#mask0_91_24743)"><g id="contents"><path id="background" fill="#2E42A5" fill-rule="evenodd" d="M3 2V26H39V2H3Z" clip-rule="evenodd"/><mask id="mask1_91_24743" width="36" height="24" x="3" y="2" maskUnits="userSpaceOnUse" style="mask-type:alpha"><path id="background_2" fill="white" fill-rule="evenodd" d="M3 2V26H39V2H3Z" clip-rule="evenodd"/></mask><g mask="url(#mask1_91_24743)"><path id="Star 5" fill="#F7FCFF" fill-rule="evenodd" d="M6.70629 12.0634L5.71004 12.6114L6.09681 11.6915L5.25 10.995H6.27712L6.70629 10L7.03379 10.995H8.0625L7.32113 11.6915L7.68411 12.6114L6.70629 12.0634Z" clip-rule="evenodd"/><path id="Star 5_2" fill="#F7FCFF" fill-rule="evenodd" d="M11.2063 8.06339L10.21 8.61135L10.5968 7.69146L9.75 6.99504H10.7771L11.2063 6L11.5338 6.99504H12.5625L11.8211 7.69146L12.1841 8.61135L11.2063 8.06339Z" clip-rule="evenodd"/><path id="Star 5_3" fill="#F7FCFF" fill-rule="evenodd" d="M15.7063 12.0634L14.71 12.6114L15.0968 11.6915L14.25 10.995H15.2771L15.7063 10L16.0338 10.995H17.0625L16.3211 11.6915L16.6841 12.6114L15.7063 12.0634Z" clip-rule="evenodd"/><path id="Star 5_4" fill="#F7FCFF" fill-rule="evenodd" d="M11.2063 16.0634L10.21 16.6114L10.5968 15.6915L9.75 14.995H10.7771L11.2063 14L11.5338 14.995H12.5625L11.8211 15.6915L12.1841 16.6114L11.2063 16.0634Z" clip-rule="evenodd"/><path id="Combined Shape" fill="#FECA00" fill-rule="evenodd" d="M30.9469 7.46289C26.353 9.48005 11.2586 18.545 11.2586 18.545H36.4036C36.1525 18.4951 35.9182 18.4536 35.6973 18.4145C33.8514 18.0878 32.9403 17.9266 30.9469 14.3969C28.715 10.4448 30.9469 7.46289 30.9469 7.46289ZM10.4425 19.9649L10.0986 20.7249L10.4425 21.5598L36.0404 21.9998L36.7498 20.8401L36.0404 20.0051L10.4425 19.9649Z" clip-rule="evenodd"/></g></g></g></g></g></g><defs><filter id="filter0_dd_91_24743" width="42" height="30" x="0" y="0" color-interpolation-filters="sRGB" filterUnits="userSpaceOnUse"><feFlood flood-opacity="0" result="BackgroundImageFix"/><feColorMatrix in="SourceAlpha" result="hardAlpha" values="0 0 0 0 0 0 0 0 0 0 0 0 0 0 0 0 0 0 127 0"/><feOffset dy="1"/><feGaussianBlur stdDeviation="1"/><feColorMatrix values="0 0 0 0 0.0627451 0 0 0 0 0.0941176 0 0 0 0 0.156863 0 0 0 0.06 0"/><feBlend in2="BackgroundImageFix" result="effect1_dropShadow_91_24743"/><feColorMatrix in="SourceAlpha" result="hardAlpha" values="0 0 0 0 0 0 0 0 0 0 0 0 0 0 0 0 0 0 127 0"/><feOffset dy="1"/><feGaussianBlur stdDeviation="1.5"/><feColorMatrix values="0 0 0 0 0.0627451 0 0 0 0 0.0941176 0 0 0 0 0.156863 0 0 0 0.1 0"/><feBlend in2="effect1_dropShadow_91_24743" result="effect2_dropShadow_91_24743"/><feBlend in="SourceGraphic" in2="effect2_dropShadow_91_24743" result="shape"/></filter><clipPath id="clip0_91_24743"><rect width="36" height="24" x="3" y="2" fill="white" rx="2"/></clipPath></defs></svg>

<svg xmlns="http://www.w3.org/2000/svg" fill="none" aria-hidden="true" viewBox="0 0 42 30"><g filter="url(#a)"><g clip-path="url(#b)"><mask id="c" width="36" height="24" x="3" y="2" maskUnits="userSpaceOnUse" style="mask-type:alpha"><path fill="#fff" d="M3 2h36v24H3z"/></mask><g mask="url(#c)"><path fill="#2E42A5" fill-rule="evenodd" d="M3 2v24h36V2H3Z" clip-rule="evenodd"/><mask id="d" width="36" height="24" x="3" y="2" maskUnits="userSpaceOnUse" style="mask-type:alpha"><path fill="#fff" fill-rule="evenodd" d="M3 2v24h36V2H3Z" clip-rule="evenodd"/></mask><g fill-rule="evenodd" clip-rule="evenodd" mask="url(#d)"><path fill="#F7FCFF" d="m6.706 12.063-.996.548.387-.92-.847-.696h1.027l.43-.995.327.995h1.029l-.742.697.363.92-.978-.549Zm4.5-4-.996.548.387-.92-.847-.696h1.027l.43-.995.327.995h1.028l-.74.696.362.92-.978-.548Zm4.5 4-.996.548.387-.92-.847-.696h1.027l.43-.995.327.995h1.029l-.742.697.363.92-.978-.549Zm-4.5 4-.996.548.387-.92-.847-.696h1.027l.43-.995.327.995h1.028l-.74.697.362.92-.978-.549Z"/><path fill="#FECA00" d="M30.947 7.463C26.353 9.48 11.259 18.545 11.259 18.545h25.145c-.252-.05-.486-.091-.707-.13-1.846-.327-2.757-.488-4.75-4.018-2.232-3.952 0-6.934 0-6.934ZM10.443 19.965l-.344.76.344.835L36.04 22l.71-1.16-.71-.835-25.597-.04Z"/></g></g></g></g><defs><clipPath id="b"><rect width="36" height="24" x="3" y="2" fill="#fff" rx="2"/></clipPath><filter id="a" width="42" height="30" x="0" y="0" color-interpolation-filters="sRGB" filterUnits="userSpaceOnUse"><feFlood flood-opacity="0" result="BackgroundImageFix"/><feColorMatrix in="SourceAlpha" result="hardAlpha" values="0 0 0 0 0 0 0 0 0 0 0 0 0 0 0 0 0 0 127 0"/><feOffset dy="1"/><feGaussianBlur stdDeviation="1"/><feColorMatrix values="0 0 0 0 0.0627451 0 0 0 0 0.0941176 0 0 0 0 0.156863 0 0 0 0.06 0"/><feBlend in2="BackgroundImageFix" result="effect1_dropShadow_91_24743"/><feColorMatrix in="SourceAlpha" result="hardAlpha" values="0 0 0 0 0 0 0 0 0 0 0 0 0 0 0 0 0 0 127 0"/><feOffset dy="1"/><feGaussianBlur stdDeviation="1.5"/><feColorMatrix values="0 0 0 0 0.0627451 0 0 0 0 0.0941176 0 0 0 0 0.156863 0 0 0 0.1 0"/><feBlend in2="effect1_dropShadow_91_24743" result="effect2_dropShadow_91_24743"/><feBlend in="SourceGraphic" in2="effect2_dropShadow_91_24743" result="shape"/></filter></defs></svg>
